frontend/public/logo.svg

<?xml version="1.0" encoding="UTF-8" standalone="no"?>
<svg
   width="194"
   height="125"
   viewBox="70 63 194 125"
   preserveAspectRatio="xMidYMid"
   color-interpolation-filters="sRGB"
   class="block h-9 w-auto"
   version="1.1"
   id="svg7"
   sodipodi:docname="logo.svg"
   inkscape:version="1.4.1-rc (06eac75fbf, 2025-03-29)"
   inkscape:export-filename="../3767e219/logo-512x512.png"
   inkscape:export-xdpi="33.75"
   inkscape:export-ydpi="33.75"
   xmlns:inkscape="http://www.inkscape.org/namespaces/inkscape"
   xmlns:sodipodi="http://sodipodi.sourceforge.net/DTD/sodipodi-0.dtd"
   xmlns="http://www.w3.org/2000/svg"
   xmlns:svg="http://www.w3.org/2000/svg">
  <defs
     id="defs7">
    <clipPath
       clipPathUnits="userSpaceOnUse"
       id="clipPath11">
      <rect
         style="fill:#000000"
         id="rect11"
         width="122.98905"
         height="22.157297"
         x="-1.0749071"
         y="-20.95188" />
    </clipPath>
    <clipPath
       clipPathUnits="userSpaceOnUse"
       id="clipPath12">
      <rect
         style="fill:#000000"
         id="rect13"
         width="49.613079"
         height="24.726259"
         x="121.59303"
         y="-21.754683" />
    </clipPath>
  </defs>
  <sodipodi:namedview
     id="namedview7"
     pagecolor="#ffffff"
     bordercolor="#000000"
     borderopacity="0.25"
     inkscape:showpageshadow="2"
     inkscape:pageopacity="0.0"
     inkscape:pagecheckerboard="0"
     inkscape:deskcolor="#d1d1d1"
     inkscape:zoom="1.5570491"
     inkscape:cx="142.57739"
     inkscape:cy="284.83366"
     inkscape:window-width="1720"
     inkscape:window-height="1306"
     inkscape:window-x="0"
     inkscape:window-y="27"
     inkscape:window-maximized="0"
     inkscape:current-layer="svg7" />
  <g
     id="g14"
     transform="matrix(0.36203763,0,0,0.36203763,48.830383,19.234881)">
    <path
       fill-opacity="0"
       stroke="#4dbbff"
       stroke-width="8.23852"
       d="m 266.73568,257.79182 a 155.64627,155.64627 0 1 1 0,71.45544"
       id="path1"
       style="opacity:1"
       inkscape:label="ring" />
    <path
       fill="#f3f4f6"
       stroke="#1f2937"
       d="m 1.51,0 v -18.72 h 17.08 v 2.11 H 3.61 v 6.18 h 12.04 v 2.14 H 3.61 V 0 Z M 23.3,-15.08 v 0 h 8.47 v 2.13 H 23.3 c -0.28,0 -0.52,0.1 -0.72,0.3 -0.2,0.2 -0.3,0.44 -0.3,0.72 v 0 V 0 h -2.13 v -11.93 c 0,-0.866667 0.306667,-1.61 0.92,-2.23 0.62,-0.613333 1.363333,-0.92 2.23,-0.92 z m 13.28,0 h 9.05 c 0.886667,0 1.636667,0.306667 2.25,0.92 0.613333,0.62 0.92,1.363333 0.92,2.23 v 0 5.46 H 35.57 v 3.32 c 0,0.28 0.1,0.52 0.3,0.72 0.2,0.2 0.436667,0.3 0.71,0.3 v 0 H 48.8 V 0 H 36.58 c -0.866667,0 -1.606667,-0.30666667 -2.22,-0.92 -0.613333,-0.62 -0.92,-1.3633333 -0.92,-2.23 v 0 -8.78 c 0,-0.866667 0.306667,-1.61 0.92,-2.23 0.613333,-0.613333 1.353333,-0.92 2.22,-0.92 z m -1.01,3.15 v 3.32 h 11.07 v -3.32 c 0,-0.28 -0.1,-0.52 -0.3,-0.72 -0.193333,-0.2 -0.43,-0.3 -0.71,-0.3 v 0 h -9.05 c -0.273333,0 -0.51,0.1 -0.71,0.3 -0.2,0.2 -0.3,0.44 -0.3,0.72 z m 18.61,-3.15 h 9.05 c 0.886667,0 1.636667,0.306667 2.25,0.92 0.613333,0.62 0.92,1.363333 0.92,2.23 v 0 5.46 H 53.17 v 3.32 c 0,0.28 0.1,0.52 0.3,0.72 0.2,0.2 0.436667,0.3 0.71,0.3 v 0 H 66.4 V 0 H 54.18 c -0.866667,0 -1.606667,-0.30666667 -2.22,-0.92 -0.613333,-0.62 -0.92,-1.3633333 -0.92,-2.23 v 0 -8.78 c 0,-0.866667 0.306667,-1.61 0.92,-2.23 0.613333,-0.613333 1.353333,-0.92 2.22,-0.92 z m -1.01,3.15 v 3.32 h 11.08 v -3.32 c 0,-0.28 -0.1,-0.52 -0.3,-0.72 -0.2,-0.2 -0.44,-0.3 -0.72,-0.3 v 0 h -9.05 c -0.273333,0 -0.51,0.1 -0.71,0.3 -0.2,0.2 -0.3,0.44 -0.3,0.72 z m 28.96,-1.02 H 69.11 v -2.13 h 15.36 v 2.91 L 71.45,-2.13 H 84.47 V 0 H 69.11 v -2.91 z m 7.54,-2.13 h 9.05 c 0.886667,0 1.63667,0.306667 2.25,0.92 0.61333,0.62 0.92,1.363333 0.92,2.23 v 0 5.46 H 88.66 v 3.32 c 0,0.28 0.1,0.52 0.3,0.72 0.2,0.2 0.436667,0.3 0.71,0.3 v 0 h 12.22 V 0 H 89.67 c -0.866667,0 -1.606667,-0.30666667 -2.22,-0.92 -0.613333,-0.62 -0.92,-1.3633333 -0.92,-2.23 v 0 -8.78 c 0,-0.866667 0.306667,-1.61 0.92,-2.23 0.613333,-0.613333 1.353333,-0.92 2.22,-0.92 z m -1.01,3.15 v 3.32 h 11.08 v -3.32 c 0,-0.28 -0.1,-0.52 -0.3,-0.72 -0.2,-0.2 -0.44,-0.3 -0.72,-0.3 v 0 h -9.05 c -0.273333,0 -0.51,0.1 -0.71,0.3 -0.2,0.2 -0.3,0.44 -0.3,0.72 z m 18.9,-3.15 v 0 h 8.48 v 2.13 h -8.48 c -0.27333,0 -0.51,0.1 -0.71,0.3 -0.2,0.2 -0.3,0.44 -0.3,0.72 v 0 V 0 h -2.13 v -11.93 c 0,-0.866667 0.30667,-1.61 0.92,-2.23 0.61333,-0.613333 1.35333,-0.92 2.22,-0.92 z m 19.42,0 h 10.09 c 0.86667,0 1.61,0.306667 2.23,0.92 0.61333,0.62 0.92,1.363333 0.92,2.23 v 0 8.78 c 0,0.8666667 -0.30667,1.61 -0.92,2.23 -0.62,0.61333333 -1.36333,0.92 -2.23,0.92 v 0 h -12.22 v -20.02 h 2.13 z m 11.11,11.93 v 0 -8.78 c 0,-0.28 -0.1,-0.52 -0.3,-0.72 -0.2,-0.2 -0.44,-0.3 -0.72,-0.3 v 0 h -9.05 c -0.27333,0 -0.51333,0.1 -0.72,0.3 -0.21333,0.2 -0.32,0.44 -0.32,0.72 v 0 8.78 c 0,0.28 0.10667,0.52 0.32,0.72 0.20667,0.2 0.44667,0.3 0.72,0.3 v 0 h 9.05 c 0.28,0 0.52,-0.1 0.72,-0.3 0.2,-0.2 0.3,-0.44 0.3,-0.72 z m 7.17,-11.93 v 0 h 9.05 c 0.88667,0 1.63667,0.306667 2.25,0.92 0.61333,0.62 0.92,1.363333 0.92,2.23 v 0 8.78 c 0,0.8666667 -0.30667,1.61 -0.92,2.23 -0.61333,0.61333333 -1.36333,0.92 -2.25,0.92 v 0 h -9.05 c -0.86667,0 -1.60667,-0.30666667 -2.22,-0.92 -0.61333,-0.62 -0.92,-1.3633333 -0.92,-2.23 v 0 -8.78 c 0,-0.866667 0.30667,-1.61 0.92,-2.23 0.61333,-0.613333 1.35333,-0.92 2.22,-0.92 z m 9.05,2.13 v 0 h -9.05 c -0.27333,0 -0.51,0.1 -0.71,0.3 -0.2,0.2 -0.3,0.44 -0.3,0.72 v 0 8.78 c 0,0.28 0.1,0.52 0.3,0.72 0.2,0.2 0.43667,0.3 0.71,0.3 v 0 h 9.05 c 0.28,0 0.52,-0.1 0.72,-0.3 0.19333,-0.2 0.29,-0.44 0.29,-0.72 v 0 -8.78 c 0,-0.28 -0.0967,-0.52 -0.29,-0.72 -0.2,-0.2 -0.44,-0.3 -0.72,-0.3 z m 13.91,-2.13 v 2.13 h -6.53 v 9.8 c 0,0.28 0.1,0.52 0.3,0.72 0.2,0.2 0.44,0.3 0.72,0.3 v 0 h 5.51 V 0 h -5.51 c -0.88667,0 -1.63333,-0.30666667 -2.24,-0.92 -0.60667,-0.62 -0.91,-1.3633333 -0.91,-2.23 v 0 -16.87 h 2.13 v 4.94 z"
       transform="matrix(2.7461738,0,0,2.7461738,72.128074,315.51639)"
       id="path2"
       style="display:inline;opacity:1;fill:#1f2937;fill-opacity:1;stroke:#1f2937;stroke-width:1;stroke-linecap:butt;stroke-linejoin:round;stroke-dasharray:none;stroke-dashoffset:0;stroke-opacity:1"
       inkscape:label="freezer"
       clip-path="url(#clipPath11)"
       sodipodi:nodetypes="cccccccccccscccssscccscssscscccssscccscscscssccscscssssscscccssscccscscscssccssscssscccccccccccsscscccssscccscscscssccssscsssscccssscccscscscscscscccccscssscscscscscsssscscscscscscscscsscssscssscscscscscccssscccscsccccc" />
    <path
       fill="#f3f4f6"
       stroke="#1f2937"
       d="m 1.51,0 v -18.72 h 17.08 v 2.11 H 3.61 v 6.18 h 12.04 v 2.14 H 3.61 V 0 Z M 23.3,-15.08 v 0 h 8.47 v 2.13 H 23.3 q -0.42,0 -0.72,0.3 -0.3,0.3 -0.3,0.72 v 0 V 0 h -2.13 v -11.93 q 0,-1.3 0.92,-2.23 0.93,-0.92 2.23,-0.92 z m 13.28,0 h 9.05 q 1.33,0 2.25,0.92 0.92,0.93 0.92,2.23 v 0 5.46 H 35.57 v 3.32 q 0,0.42 0.3,0.72 0.3,0.3 0.71,0.3 v 0 H 48.8 V 0 H 36.58 q -1.3,0 -2.22,-0.92 -0.92,-0.93 -0.92,-2.23 v 0 -8.78 q 0,-1.3 0.92,-2.23 0.92,-0.92 2.22,-0.92 z m -1.01,3.15 v 3.32 h 11.07 v -3.32 q 0,-0.42 -0.3,-0.72 -0.29,-0.3 -0.71,-0.3 v 0 h -9.05 q -0.41,0 -0.71,0.3 -0.3,0.3 -0.3,0.72 z m 18.61,-3.15 h 9.05 q 1.33,0 2.25,0.92 0.92,0.93 0.92,2.23 v 0 5.46 H 53.17 v 3.32 q 0,0.42 0.3,0.72 0.3,0.3 0.71,0.3 v 0 H 66.4 V 0 H 54.18 q -1.3,0 -2.22,-0.92 -0.92,-0.93 -0.92,-2.23 v 0 -8.78 q 0,-1.3 0.92,-2.23 0.92,-0.92 2.22,-0.92 z m -1.01,3.15 v 3.32 h 11.08 v -3.32 q 0,-0.42 -0.3,-0.72 -0.3,-0.3 -0.72,-0.3 v 0 h -9.05 q -0.41,0 -0.71,0.3 -0.3,0.3 -0.3,0.72 z m 28.96,-1.02 H 69.11 v -2.13 h 15.36 v 2.91 L 71.45,-2.13 H 84.47 V 0 H 69.11 v -2.91 z m 7.54,-2.13 h 9.05 q 1.33,0 2.25,0.92 0.92,0.93 0.92,2.23 v 0 5.46 H 88.66 v 3.32 q 0,0.42 0.3,0.72 0.3,0.3 0.71,0.3 v 0 h 12.22 V 0 H 89.67 q -1.3,0 -2.22,-0.92 -0.92,-0.93 -0.92,-2.23 v 0 -8.78 q 0,-1.3 0.92,-2.23 0.92,-0.92 2.22,-0.92 z m -1.01,3.15 v 3.32 h 11.08 v -3.32 q 0,-0.42 -0.3,-0.72 -0.3,-0.3 -0.72,-0.3 v 0 h -9.05 q -0.41,0 -0.71,0.3 -0.3,0.3 -0.3,0.72 z m 18.9,-3.15 v 0 h 8.48 v 2.13 h -8.48 q -0.41,0 -0.71,0.3 -0.3,0.3 -0.3,0.72 v 0 V 0 h -2.13 v -11.93 q 0,-1.3 0.92,-2.23 0.92,-0.92 2.22,-0.92 z m 19.42,0 h 10.09 q 1.3,0 2.23,0.92 0.92,0.93 0.92,2.23 v 0 8.78 q 0,1.3 -0.92,2.23 Q 138.37,0 137.07,0 v 0 h -12.22 v -20.02 h 2.13 z m 11.11,11.93 v 0 -8.78 q 0,-0.42 -0.3,-0.72 -0.3,-0.3 -0.72,-0.3 v 0 h -9.05 q -0.41,0 -0.72,0.3 -0.32,0.3 -0.32,0.72 v 0 8.78 q 0,0.42 0.32,0.72 0.31,0.3 0.72,0.3 v 0 h 9.05 q 0.42,0 0.72,-0.3 0.3,-0.3 0.3,-0.72 z m 7.17,-11.93 v 0 h 9.05 q 1.33,0 2.25,0.92 0.92,0.93 0.92,2.23 v 0 8.78 q 0,1.3 -0.92,2.23 Q 155.64,0 154.31,0 v 0 h -9.05 q -1.3,0 -2.22,-0.92 -0.92,-0.93 -0.92,-2.23 v 0 -8.78 q 0,-1.3 0.92,-2.23 0.92,-0.92 2.22,-0.92 z m 9.05,2.13 v 0 h -9.05 q -0.41,0 -0.71,0.3 -0.3,0.3 -0.3,0.72 v 0 8.78 q 0,0.42 0.3,0.72 0.3,0.3 0.71,0.3 v 0 h 9.05 q 0.42,0 0.72,-0.3 0.29,-0.3 0.29,-0.72 v 0 -8.78 q 0,-0.42 -0.29,-0.72 -0.3,-0.3 -0.72,-0.3 z m 13.91,-2.13 v 2.13 h -6.53 v 9.8 q 0,0.42 0.3,0.72 0.3,0.3 0.72,0.3 v 0 h 5.51 V 0 h -5.51 q -1.33,0 -2.24,-0.92 -0.91,-0.93 -0.91,-2.23 v 0 -16.87 h 2.13 v 4.94 z"
       transform="matrix(2.7461738,0,0,2.7461738,55.651032,315.51639)"
       id="path8"
       style="display:inline;opacity:1;fill:#1f2937;fill-opacity:1;stroke:#1f2937;stroke-linecap:butt;stroke-linejoin:miter;stroke-miterlimit:4.1;stroke-opacity:1"
       inkscape:label="bot"
       clip-path="url(#clipPath12)" />
  </g>
</svg>

<svg xmlns="http://www.w3.org/2000/svg" xmlns:xlink="http://www.w3.org/1999/xlink" width="100%" height="100%" viewBox="70 63 210 125" preserveAspectRatio="xMidYMid meet" color-interpolation-filters="sRGB">
    <g fill="#020202" class="bordersvg b-d1" transform="translate(67.4017105102539,68.3225030313888)">
        <path fill-opacity="0" class="stroke-primary-500" stroke="#4dbbff" stroke-width="3" d="M 93.3550033569336 43.66750144958496 A 56.6775016784668 56.6775016784668 0 1 1 93.3550033569336 69.68750190734863"/>
        <g transform="translate(0,43.66750144958496)">
            <g>
                <rect stroke-width="2" class="i-icon-bg" x="0" y="0" width="186.7100067138672" height="26.020000457763672" fill-opacity="0"/>
            </g>
            <g transform="translate(10,3)">
                <g opacity="1" transform="matrix(1,0,0,1,0,0)">
                    <g transform="scale(1)">
                        <g>
                            <path stroke="#000000" fill="#f3f4f6" class="stroke-gray-800 dark:stroke-gray-100 fill-gray-800 dark:fill-gray-100" d="M1.51 0L1.51-18.72 18.59-18.72 18.59-16.61 3.61-16.61 3.61-10.43 15.65-10.43 15.65-8.29 3.61-8.29 3.61 0 1.51 0ZM23.3-15.08L23.3-15.08 31.77-15.08 31.77-12.95 23.3-12.95Q22.88-12.95 22.58-12.65 22.28-12.35 22.28-11.93L22.28-11.93 22.28 0 20.15 0 20.15-11.93Q20.15-13.23 21.07-14.16 22-15.08 23.3-15.08ZM36.58-15.08L45.63-15.08Q46.96-15.08 47.88-14.16 48.8-13.23 48.8-11.93L48.8-11.93 48.8-6.47 35.57-6.47 35.57-3.15Q35.57-2.73 35.87-2.43 36.17-2.13 36.58-2.13L36.58-2.13 48.8-2.13 48.8 0 36.58 0Q35.28 0 34.36-0.92 33.44-1.85 33.44-3.15L33.44-3.15 33.44-11.93Q33.44-13.23 34.36-14.16 35.28-15.08 36.58-15.08L36.58-15.08ZM35.57-11.93L35.57-8.61 46.64-8.61 46.64-11.93Q46.64-12.35 46.34-12.65 46.05-12.95 45.63-12.95L45.63-12.95 36.58-12.95Q36.17-12.95 35.87-12.65 35.57-12.35 35.57-11.93L35.57-11.93ZM54.18-15.08L63.23-15.08Q64.56-15.08 65.48-14.16 66.4-13.23 66.4-11.93L66.4-11.93 66.4-6.47 53.17-6.47 53.17-3.15Q53.17-2.73 53.47-2.43 53.77-2.13 54.18-2.13L54.18-2.13 66.4-2.13 66.4 0 54.18 0Q52.88 0 51.96-0.92 51.04-1.85 51.04-3.15L51.04-3.15 51.04-11.93Q51.04-13.23 51.96-14.16 52.88-15.08 54.18-15.08L54.18-15.08ZM53.17-11.93L53.17-8.61 64.25-8.61 64.25-11.93Q64.25-12.35 63.95-12.65 63.65-12.95 63.23-12.95L63.23-12.95 54.18-12.95Q53.77-12.95 53.47-12.65 53.17-12.35 53.17-11.93L53.17-11.93ZM82.13-12.95L69.11-12.95 69.11-15.08 84.47-15.08 84.47-12.17 71.45-2.13 84.47-2.13 84.47 0 69.11 0 69.11-2.91 82.13-12.95ZM89.67-15.08L98.72-15.08Q100.05-15.08 100.97-14.16 101.89-13.23 101.89-11.93L101.89-11.93 101.89-6.47 88.66-6.47 88.66-3.15Q88.66-2.73 88.96-2.43 89.26-2.13 89.67-2.13L89.67-2.13 101.89-2.13 101.89 0 89.67 0Q88.37 0 87.45-0.92 86.53-1.85 86.53-3.15L86.53-3.15 86.53-11.93Q86.53-13.23 87.45-14.16 88.37-15.08 89.67-15.08L89.67-15.08ZM88.66-11.93L88.66-8.61 99.74-8.61 99.74-11.93Q99.74-12.35 99.44-12.65 99.14-12.95 98.72-12.95L98.72-12.95 89.67-12.95Q89.26-12.95 88.96-12.65 88.66-12.35 88.66-11.93L88.66-11.93ZM107.56-15.08L107.56-15.08 116.04-15.08 116.04-12.95 107.56-12.95Q107.15-12.95 106.85-12.65 106.55-12.35 106.55-11.93L106.55-11.93 106.55 0 104.42 0 104.42-11.93Q104.42-13.23 105.34-14.16 106.26-15.08 107.56-15.08ZM126.98-15.08L137.07-15.08Q138.37-15.08 139.3-14.16 140.22-13.23 140.22-11.93L140.22-11.93 140.22-3.15Q140.22-1.85 139.3-0.92 138.37 0 137.07 0L137.07 0 124.85 0 124.85-20.02 126.98-20.02 126.98-15.08ZM138.09-3.15L138.09-3.15 138.09-11.93Q138.09-12.35 137.79-12.65 137.49-12.95 137.07-12.95L137.07-12.95 128.02-12.95Q127.61-12.95 127.3-12.65 126.98-12.35 126.98-11.93L126.98-11.93 126.98-3.15Q126.98-2.73 127.3-2.43 127.61-2.13 128.02-2.13L128.02-2.13 137.07-2.13Q137.49-2.13 137.79-2.43 138.09-2.73 138.09-3.15ZM145.26-15.08L145.26-15.08 154.31-15.08Q155.64-15.08 156.56-14.16 157.48-13.23 157.48-11.93L157.48-11.93 157.48-3.15Q157.48-1.85 156.56-0.92 155.64 0 154.31 0L154.31 0 145.26 0Q143.96 0 143.04-0.92 142.12-1.85 142.12-3.15L142.12-3.15 142.12-11.93Q142.12-13.23 143.04-14.16 143.96-15.08 145.26-15.08ZM154.31-12.95L154.31-12.95 145.26-12.95Q144.85-12.95 144.55-12.65 144.25-12.35 144.25-11.93L144.25-11.93 144.25-3.15Q144.25-2.73 144.55-2.43 144.85-2.13 145.26-2.13L145.26-2.13 154.31-2.13Q154.73-2.13 155.03-2.43 155.32-2.73 155.32-3.15L155.32-3.15 155.32-11.93Q155.32-12.35 155.03-12.65 154.73-12.95 154.31-12.95ZM168.22-15.08L168.22-12.95 161.69-12.95 161.69-3.15Q161.69-2.73 161.99-2.43 162.29-2.13 162.71-2.13L162.71-2.13 168.22-2.13 168.22 0 162.71 0Q161.38 0 160.47-0.92 159.56-1.85 159.56-3.15L159.56-3.15 159.56-20.02 161.69-20.02 161.69-15.08 168.22-15.08Z" transform="translate(-1.5099999904632568, 20.020000457763672)"/>
                        </g>
                    </g>
                </g>
            </g>
        </g>
    </g>
</svg>
